X: 1
T: Wyman's Quickstep
P: piffero primo a0657
O: Bruce & Emmett
%R: jig, quickstep
F: http://ancients.sudburymuster.org/mus/sng/pdf/wymansC0.pdf
Z: 2020 John Chambers <jc:trillian.mit.edu>
M: 6/8
L: 1/8
K: D
A |\
dAd fdf | ada fdf | gAg fdf | ece Aaf |\
dAd fdf | ada fdf | gAg fdf | eAc d2 :|
|: f |\
gec gec | dAf daf | gec gec | dfd A2F |\
DFA FAd | Adf dfa | gec ABc | d2f d2 :|
